X:1
T:Title
%%score { ( 1 3 4 ) | ( 2 5 6 ) }
L:1/8
M:4/4
K:Eb
V:1 treble nm="Grand Piano"
V:3 treble 
V:4 treble 
V:2 bass 
V:5 bass 
V:6 bass 
V:1
 z4 z2[Q:1/4=94] [B,EG]>[B,FA] | [EGB]2 [B,EG]>[B,FA] [EGB]2 [Ge]>[Ge] | e2 d>c [GB]2 G>A | %3
 B2 c>c B2 G>G | G2 F>G [DF]2 [DB]>[DA] | [EG]2 [EG]>[FA] [GB]2 [Ge]>[Ge] | e2 d>c [GB]2 [_Gc]2 | %7
 d2 e>d c2 =A2 |[M:11/16] [DB]/-[DB]/-[DB]/-[DB]/-[DB]/-[DB]/-[DB]/-[DB]-<[DB] |[M:5/16] B<cB/ | %10
[M:4/4] G6 z2 | A6 z2 | [B,FA]2 B2 [Ac]2 d2 | [GB]6 z2 | G6 z2 | c6 z2 | [Ge]3 [EB] [Ee]3 [E=A] | %17
 [EB]2 [GB]>[Ac] [EG]2 [DF]2[Q:1/4=92][Q:1/4=90][Q:1/4=88][Q:1/4=86][Q:1/4=84][Q:1/4=82][Q:1/4=80][Q:1/4=78][Q:1/4=76][Q:1/4=74][Q:1/4=72] | %18
[M:3/4] E6 |] %19
V:2
 z4 z2 E,>E, | E,2 E,>E, E,2 [E,_D]>[E,D] | [A,CA]2 [A,DA]>[A,EA][K:bass] [E,E]2 [E,B,E]>[F,B,D] | %3
 [G,B,E]2 [A,E]>[A,E] [E,G,E]2 [E,B,E]>[E,B,E] | %4
 [F,B,D]2 [F,=A,E]>[F,A,E] [B,,B,]2 [B,,F,]>[B,,B,] | [E,B,]2 [E,B,]>[E,B,] [E,E]2 [E,_D]>[E,D] | %6
 [A,CA]2 [A,DA]>[A,EA][K:bass] [E,E]2 [E,B,]2 | [F,B,F]2 G>F[K:bass] [F,=A,E]2 [F,C]2 | %8
[M:11/16] [B,,F,]-<[B,,F,]B,,-<B,,B,,3/2 |[M:5/16][K:treble] G<AG/ | %10
[M:4/4] E6[K:bass][K:treble] z2 | F6[K:bass] z2 | B,,2 G2 [B,,B,]2 F2 | %13
 z z/ E/ E,2 z z/[K:treble] G/ A>G | E6[K:bass] z2 | [A,E]2 [G,B,]2 [F,A,]2 [B,,B,]2 | %16
 [E,B,]3 [E,G,] [=B,,_G,]3 [B,,G,] | [B,,G,]2 [B,,B,]>[B,,B,] [B,,B,]2 [B,,A,]2 |[M:3/4] [E,G,]6 |] %19
V:3
 x8 | x8 | x8 | x8 | x8 | x8 | x8 | x8 |[M:11/16] z/ z/ z F,-<F,F,3/2 |[M:5/16] x5/2 | %10
[M:4/4] z z/ B,/ B,>B, z z/ B/ c>B | z z/ B,/ B,>B, z z/ A/ [DF]>G | x8 | B,2 D>C z z/ B/ c>B | %14
 z z/ B,/ B,>B, B,>G A>B | z2 =E2 F2 [Fd]2 | x8 | x8 |[M:3/4] x6 |] %19
V:4
 x8 | x8 | x8 | x8 | x8 | x8 | x8 | x8 |[M:11/16] x11/2 |[M:5/16] x5/2 |[M:4/4] z4 B,2 z2 | %11
 z4 B,2 z2 | x8 | z4 B,2 z2 | x8 | x8 | x8 | x8 |[M:3/4] x6 |] %19
V:5
 x8 | x8 | x4[K:bass] x4 | x8 | x8 | x8 | x4[K:bass] x4 | x4[K:bass] x4 |[M:11/16] x11/2 | %9
[M:5/16][K:treble] x5/2 |[M:4/4] z z/[K:bass] E,/ E,>E, z z/[K:treble] G/ A>G | %11
 z z/[K:bass] B,,/ B,,>B,, z z/ F/ z z/ E/ | x8 | E,2 z2 E,2[K:treble] z2 | %14
 z z/[K:bass] E,/ B,,>B,, E,>[E,B,E] [F,B,D]>[G,B,E] | x8 | x8 | x8 |[M:3/4] x6 |] %19
V:6
 x8 | x8 | x4[K:bass] x4 | x8 | x8 | x8 | x4[K:bass] x4 | x4[K:bass] x4 |[M:11/16] x11/2 | %9
[M:5/16][K:treble] x5/2 |[M:4/4] z4[K:bass] E,2[K:treble] z2 | z4[K:bass] B,,2 [B,,B,]2 | x8 | %13
 x11/2[K:treble] x5/2 | x3/2[K:bass] x13/2 | x8 | x8 | x8 |[M:3/4] x6 |] %19

